icons-dark/emblems/8/emblem-unlocked.svg

<svg viewBox="0 0 8 8" xmlns="http://www.w3.org/2000/svg">
    <style
        type="text/css"
        id="current-color-scheme">
        .ColorScheme-NeutralText {
            color:#f67400;
        }
    </style>
    <path style="fill:currentColor;fill-opacity:1;stroke:none" class="ColorScheme-NeutralText" d="M1 0C.446 0 0 .446 0 1v6c0 .554.446 1 1 1h6c.554 0 1-.446 1-1V1c0-.554-.446-1-1-1z"/>
    <path d="M4 1a2 2 0 0 0-2 2h1a1 1 0 0 1 1-1 1 1 0 0 1 1 1v1H1v3h6V4H6V3a2 2 0 0 0-2-2z" fill="#fff"/>
</svg>

<svg xmlns="http://www.w3.org/2000/svg" viewBox="0 0 8 8">
  <defs id="defs3051">
    <style type="text/css" id="current-color-scheme">
      .ColorScheme-NeutralText {
        color:#f67400;
      }
      </style>
  </defs>
  <path
      style="fill:currentColor;fill-opacity:1;stroke:none" 
     class="ColorScheme-NeutralText"
    d="M 1 0 C 0.4459807 0 0 0.446 0 1 L 0 7 C 0 7.5541 0.4459807 8 1 8 L 7 8 C 7.554019 8 8 7.5541 8 7 L 8 1 C 8 0.446 7.554019 0 7 0 L 1 0 z "
      />
    <path
       style="fill:#ffffff;fill-opacity:1;stroke:none"
       d="M 4 1 A 2 1.9999826 0 0 0 2 3 L 3 3 A 1 1 0 0 1 4 2 A 1 1 0 0 1 5 3 L 5 4 L 1 4 L 1 7 L 7 7 L 7 4 L 6 4 L 6 3 A 2 1.9999826 0 0 0 4 1 z "
        />
</svg>
